public/img/streams-feature-3.svg

<svg width="148" height="148" viewBox="0 0 148 148" fill="none" xmlns="http://www.w3.org/2000/svg">
<g clip-path="url(#clip0)">
<path d="M13.4546 53.8184H134.544C141.975 53.8184 147.999 59.8423 147.999 67.273V127.817C147.999 135.248 141.975 141.272 134.544 141.272H13.4546C6.02395 141.272 0 135.248 0 127.817V67.273C0 59.8423 6.02395 53.8184 13.4546 53.8184Z" fill="#354EC1"/>
<path d="M13.4531 74H134.544V114.364C134.544 121.794 128.52 127.818 121.089 127.818H26.9078C19.4771 127.818 13.4531 121.794 13.4531 114.364V74Z" fill="#E7CEFF"/>
<path d="M30.2725 100.908H117.726C123.299 100.908 127.817 105.426 127.817 110.999C127.817 116.572 123.299 121.09 117.726 121.09H30.2725C24.6995 121.09 20.1816 116.572 20.1816 110.999C20.1816 105.426 24.6995 100.908 30.2725 100.908Z" fill="#DEBAEF"/>
<path d="M0 67.273V134.546C0 141.976 6.02395 148 13.4546 148H134.545C141.976 148 148 141.976 148 134.546V67.273C148 59.8423 141.976 53.8184 134.545 53.8184H13.4546C6.02395 53.8184 0 59.842 0 67.273ZM141.273 114.364C141.273 118.079 138.261 121.091 134.545 121.091H13.4546C9.73929 121.091 6.72747 118.079 6.72747 114.364V67.273C6.72747 63.5577 9.73929 60.5458 13.4546 60.5458H134.545C138.261 60.5458 141.273 63.5577 141.273 67.273V114.364Z" fill="#5F7BCE"/>
<path d="M134.545 53.8184H13.4546C6.02395 53.8184 0.00031534 59.842 0 67.2727V67.273V114.364C0 121.794 6.02395 127.818 13.4546 127.818H134.545C141.976 127.818 148 121.794 148 114.364V67.273C148 59.8423 141.976 53.8184 134.545 53.8184C134.546 53.8184 134.545 53.8184 134.545 53.8184ZM141.273 114.364C141.273 118.079 138.261 121.091 134.545 121.091H13.4546C9.73929 121.091 6.72747 118.079 6.72747 114.364V67.273C6.72747 63.5577 9.73897 60.5458 13.4543 60.5458H13.4546H134.545C138.261 60.5458 141.273 63.5573 141.273 67.2727V67.273V114.364Z" fill="#7C94D7"/>
<path d="M134.545 53.8184H13.4546C6.02395 53.8184 0.00031534 59.842 0 67.2727V67.273V73.0453C0 74.903 1.50575 76.409 3.36342 76.4093C5.22109 76.4097 6.72716 74.9039 6.72747 73.0462C6.72747 73.0459 6.72747 73.0456 6.72747 73.0453V67.273C6.73157 63.5592 9.74118 60.5499 13.4546 60.5458H134.545C138.259 60.5499 141.268 63.5595 141.273 67.273V72.8287C141.273 74.6863 142.779 76.1924 144.636 76.1924C146.494 76.1924 148 74.6863 148 72.8287V67.273C148 59.8423 141.976 53.8184 134.545 53.8184C134.546 53.8184 134.545 53.8184 134.545 53.8184Z" fill="#A7B7E4"/>
<path d="M121.089 47.0918H26.9078C19.4771 47.0918 13.4534 53.1154 13.4531 60.5461V60.5464V100.91C13.4531 108.341 19.4771 114.364 26.9078 114.365H121.089C128.52 114.365 134.544 108.341 134.544 100.91V60.5464C134.544 53.1154 128.52 47.0918 121.089 47.0918C121.09 47.0918 121.09 47.0918 121.089 47.0918Z" fill="#F6EDFF"/>
<path d="M60.5436 53.8163C60.5436 57.5316 63.5554 60.5435 67.2707 60.5435H94.1797C97.895 60.5435 100.907 63.5553 100.907 67.2706C100.907 70.986 97.895 73.9978 94.1797 73.9978H67.2707C63.5554 73.9978 60.5436 77.0096 60.5436 80.7249C60.5436 84.4403 63.5554 87.4521 67.2707 87.4521H73.9979C77.7132 87.4521 80.7251 90.4639 80.7251 94.1793C80.7251 97.8946 77.7132 100.906 73.9979 100.906H60.5436C56.8282 100.906 53.8164 103.918 53.8164 107.634C53.8164 111.349 56.8282 114.361 60.5436 114.361H121.089C128.52 114.361 134.544 108.337 134.544 100.906V60.5425C134.544 53.1118 128.52 47.0879 121.089 47.0879H67.271C63.5557 47.0892 60.5436 50.101 60.5436 53.8163Z" fill="#F0E1FF"/>
<path d="M73.999 40.3636H73.9986C70.2833 40.3636 67.2715 37.3518 67.2715 33.6364V6.72716C67.2715 3.01182 70.2833 0 73.9986 0H73.999C77.7143 0 80.7261 3.01182 80.7261 6.72716V33.6364C80.7261 37.3518 77.7143 40.3636 73.999 40.3636Z" fill="#19E77C"/>
<path d="M69.2438 38.3917C71.8709 41.0188 76.1305 41.0188 78.7576 38.3917L92.2122 26.0916C94.8393 23.4645 94.8393 19.2048 92.2122 16.5777C89.5851 13.9506 85.3255 13.9506 82.6984 16.5777L69.2438 28.8779C66.6167 31.505 66.6167 35.7646 69.2438 38.3917Z" fill="#19E77C"/>
<path d="M78.7571 38.3917C76.13 41.0188 71.8704 41.0188 69.2433 38.3917L55.7887 26.0916C53.1616 23.4645 53.1616 19.2048 55.7887 16.5777C58.4158 13.9506 62.6754 13.9506 65.3025 16.5777L78.7571 28.8779C81.3842 31.505 81.3842 35.7646 78.7571 38.3917Z" fill="#19E77C"/>
<path d="M114.363 53.8164H33.6363C33.6363 61.2471 27.6126 67.2707 20.182 67.2711H20.1816V94.18C27.6123 94.18 33.636 100.204 33.6363 107.634V107.635H114.363C114.363 100.204 120.387 94.1803 127.818 94.18H127.818V67.2711C120.387 67.2711 114.363 61.2474 114.363 53.8164ZM73.9998 100.907C62.8538 100.907 53.8181 91.8714 53.8181 80.7254C53.8181 69.5793 62.8538 60.5436 73.9998 60.5436C85.1459 60.5436 94.1816 69.5793 94.1816 80.7254C94.1816 91.8714 85.1459 100.907 73.9998 100.907Z" fill="#19E77C"/>
<path d="M127.816 94.182V67.273C120.386 67.273 114.362 61.2494 114.362 53.8187V53.8184H60.5436C60.5436 57.5337 63.5554 60.5455 67.2707 60.5455H94.1797C97.895 60.5455 100.907 63.5573 100.907 67.2727C100.907 70.988 97.895 73.9998 94.1797 73.9998H92.9439C96.7667 84.3559 91.4706 95.8501 81.1148 99.673C78.8374 100.514 76.4257 100.932 73.9979 100.909H60.5436C56.8282 100.909 53.8164 103.92 53.8164 107.636V107.636H114.362C114.362 100.206 120.385 94.182 127.816 94.182C127.816 94.182 127.816 94.182 127.816 94.182Z" fill="#00C864"/>
<path d="M20.1803 134.545H127.817C131.532 134.545 134.544 137.557 134.544 141.272V141.272C134.544 144.988 131.532 148 127.817 148H20.1803C16.4649 148 13.4531 144.988 13.4531 141.272V141.272C13.4531 137.557 16.4649 134.545 20.1803 134.545Z" fill="#3E60C4"/>
</g>
<defs>
<clipPath id="clip0">
<rect width="148" height="148" fill="white"/>
</clipPath>
</defs>
</svg>

<svg width="148" height="148" fill="none" xmlns="http://www.w3.org/2000/svg"><g clip-path="url(#clip0)"><path d="M13.455 53.818h121.089c7.431 0 13.455 6.024 13.455 13.455v60.544c0 7.431-6.024 13.455-13.455 13.455H13.454C6.025 141.272 0 135.248 0 127.817V67.273c0-7.43 6.024-13.455 13.455-13.455z" fill="#354EC1"/><path d="M13.453 74h121.091v40.364c0 7.43-6.024 13.454-13.455 13.454H26.908c-7.43 0-13.455-6.024-13.455-13.454V74z" fill="#E7CEFF"/><path d="M30.273 100.908h87.453c5.573 0 10.091 4.518 10.091 10.091 0 5.573-4.518 10.091-10.091 10.091H30.273c-5.573 0-10.091-4.518-10.091-10.091 0-5.573 4.518-10.091 10.09-10.091z" fill="#DEBAEF"/><path d="M0 67.273v67.273C0 141.976 6.024 148 13.455 148h121.09c7.431 0 13.455-6.024 13.455-13.454V67.273c0-7.43-6.024-13.455-13.455-13.455H13.455C6.024 53.818 0 59.842 0 67.273zm141.273 47.091a6.727 6.727 0 01-6.728 6.727H13.455a6.727 6.727 0 01-6.728-6.727V67.273a6.727 6.727 0 016.728-6.727h121.09a6.727 6.727 0 016.728 6.727v47.091z" fill="#5F7BCE"/><path d="M134.545 53.818H13.455C6.024 53.818 0 59.842 0 67.273v47.091c0 7.43 6.024 13.454 13.455 13.454h121.09c7.431 0 13.455-6.024 13.455-13.454V67.273c0-7.43-6.024-13.455-13.455-13.455.001 0 0 0 0 0zm6.728 60.546a6.727 6.727 0 01-6.728 6.727H13.455a6.727 6.727 0 01-6.728-6.727V67.273a6.727 6.727 0 016.727-6.727h121.091a6.727 6.727 0 016.728 6.727v47.091z" fill="#7C94D7"/><path d="M134.545 53.818H13.455C6.024 53.818 0 59.842 0 67.273v5.772a3.364 3.364 0 006.727.001v-5.773a6.735 6.735 0 016.728-6.727h121.09a6.736 6.736 0 016.728 6.727v5.556a3.364 3.364 0 106.727 0v-5.556c0-7.43-6.024-13.455-13.455-13.455.001 0 0 0 0 0z" fill="#A7B7E4"/><path d="M121.089 47.092H26.908c-7.43 0-13.455 6.023-13.455 13.454v40.364c0 7.431 6.024 13.454 13.455 13.455h94.181c7.431 0 13.455-6.024 13.455-13.455V60.546c0-7.43-6.024-13.454-13.455-13.454.001 0 .001 0 0 0z" fill="#F6EDFF"/><path d="M60.544 53.816a6.727 6.727 0 006.727 6.727H94.18a6.727 6.727 0 110 13.455H67.27a6.727 6.727 0 100 13.454h6.728a6.727 6.727 0 110 13.454H60.544a6.727 6.727 0 000 13.455h60.545c7.431 0 13.455-6.024 13.455-13.455V60.542c0-7.43-6.024-13.454-13.455-13.454H67.271a6.73 6.73 0 00-6.727 6.728z" fill="#F0E1FF"/><path d="M73.999 40.364a6.727 6.727 0 01-6.727-6.728V6.727a6.727 6.727 0 1113.455 0v26.91a6.727 6.727 0 01-6.728 6.727z" fill="#19E77C"/><path d="M69.244 38.392a6.727 6.727 0 009.514 0l13.454-12.3a6.728 6.728 0 00-9.514-9.514l-13.454 12.3a6.727 6.727 0 000 9.514z" fill="#19E77C"/><path d="M78.757 38.392a6.727 6.727 0 01-9.514 0l-13.454-12.3a6.728 6.728 0 019.513-9.514l13.455 12.3a6.727 6.727 0 010 9.514zm35.606 15.424H33.636c0 7.431-6.023 13.455-13.454 13.455V94.18c7.43 0 13.454 6.024 13.454 13.454v.001h80.727c0-7.431 6.024-13.455 13.455-13.455V67.271c-7.431 0-13.455-6.024-13.455-13.455zM74 100.907c-11.146 0-20.182-9.036-20.182-20.182 0-11.146 9.036-20.181 20.182-20.181 11.146 0 20.182 9.035 20.182 20.181S85.146 100.907 74 100.907z" fill="#19E77C"/><path d="M127.816 94.182V67.273c-7.43 0-13.454-6.024-13.454-13.454H60.544a6.727 6.727 0 006.727 6.726H94.18a6.727 6.727 0 110 13.455h-1.236c3.823 10.356-1.473 21.85-11.83 25.673a19.997 19.997 0 01-7.116 1.236H60.544a6.727 6.727 0 00-6.728 6.727h60.546c0-7.43 6.023-13.454 13.454-13.454z" fill="#00C864"/><path d="M20.18 134.545h107.637a6.727 6.727 0 010 13.455H20.18a6.727 6.727 0 110-13.455z" fill="#3E60C4"/></g><defs><clipPath id="clip0"><path fill="#fff" d="M0 0h148v148H0z"/></clipPath></defs></svg>
